UI/Misc/SVG/car-wifi-off_outline_24px.svg

<svg width="24" height="24" viewBox="0 0 24 24" fill="none" xmlns="http://www.w3.org/2000/svg">
<path d="M12.0001 6C11.2119 5.9974 10.4311 6.15167 9.70315 6.45383C8.97521 6.756 8.31468 7.20001 7.76005 7.76L9.17005 9.17C9.856 8.48053 10.7696 8.0646 11.7401 8L13.5501 6.2C13.0452 6.0616 12.5235 5.99428 12.0001 6ZM12.0001 2C9.34811 2.00057 6.80498 3.05451 4.93005 4.93L6.35005 6.35C7.84754 4.84887 9.87971 4.00363 12.0001 4C13.0714 4.00211 14.1318 4.21623 15.1201 4.63L16.6201 3.13C15.1933 2.38726 13.6085 1.99963 12.0001 2ZM22.0001 11H19.4501L18.5901 9.82L18.5201 9.73L17.0801 11.17L19.2901 14.17L20.0001 15.17V20H18.0001V18H10.2401L8.24005 20H16.0001V21C16.0001 21.2652 16.1054 21.5196 16.2929 21.7071C16.4805 21.8946 16.7348 22 17.0001 22H20.0001C20.5305 22 21.0392 21.7893 21.4143 21.4142C21.7893 21.0391 22.0001 20.5304 22.0001 20V15.06C22.003 14.6995 21.887 14.348 21.6701 14.06L20.9001 13H22.0001V11ZM16.5001 14H14.2501L12.2501 16H18.0001L16.5001 14ZM7.00005 9C6.69043 9.00835 6.38668 9.08642 6.11139 9.22839C5.83611 9.37036 5.59638 9.57258 5.41005 9.82L4.55005 11H2.00005V13H3.10005L2.33005 14.06C2.11312 14.348 1.99714 14.6995 2.00005 15.06V17.76L4.00005 15.76V15.16L4.71005 14.16L7.00005 11H8.76005L8.88005 10.88L7.00005 9ZM22.0001 3.43L3.41005 22L2.00005 20.59L20.5701 2L22.0001 3.43Z" fill="#0F1621"/>
</svg>

<svg xmlns="http://www.w3.org/2000/svg" width="24" height="24" viewBox="0 0 24 24"><rect width="24" height="24" style="fill:none"/><path d="M12,6A5.94,5.94,0,0,0,7.76,7.76L9.17,9.17A4,4,0,0,1,11.74,8l1.81-1.8A5.63,5.63,0,0,0,12,6Zm0-4A10,10,0,0,0,4.93,4.93L6.35,6.35A8,8,0,0,1,12,4a8.12,8.12,0,0,1,3.12.63l1.5-1.5A10,10,0,0,0,12,2Zm10,9H19.45l-.86-1.18-.07-.09-1.44,1.44,2.21,3,.71,1V20H18V18H10.24l-2,2H16v1a1,1,0,0,0,1,1h3a2,2,0,0,0,2-2V15.06a1.64,1.64,0,0,0-.33-1L20.9,13H22Zm-5.5,3H14.25l-2,2H18ZM7,9a2.06,2.06,0,0,0-1.59.82L4.55,11H2v2H3.1l-.77,1.06a1.64,1.64,0,0,0-.33,1v2.7l2-2v-.6l.71-1L7,11H8.76l.12-.12ZM22,3.43,3.41,22,2,20.59,20.57,2Z"/></svg>
